X: 2
T: Captain Carswell
Z: Kenny
S: https://thesession.org/tunes/3512#setting16541
R: strathspey
M: 4/4
L: 1/8
K: Ador
Bfe>d e2 a2 | g>ef>d e4 | d>BA>B d2 e>f | g>ef>d e2 d>B |e>fe>d e2 a2 | g>ef>d e2 d>B | G>ABBe>d | B2 A2 A4 :|e2 | A2 A>B A2 A>B | e>dBB | G>ABB | d>ed>B e2 d>B |1 A2 A>B A2 A>B | e>dBB | G>ABBe>d | B2 A2 A4 :|2 A2 A>B A2 A>B | e>deB | | G>ABBe>d | B2 A2 A4 |e>A A2 a>gfef>d e2 d>B | G>ABBe>B | B2 A2 A2 BA A2 a>gfef>d e4 | BA G2 BdeB |A2 A>B B2 A>B | Be>e>d e2 d>B | G>ABBe>d | B2 A2 A4 |
